!!!id: EG051
!!!page: 85-87
!!!COM: Anonymous
!!!LYR: Anonymous
!!!PTL@@FR: Chansons Populaires du Canada
!!!OTL@@FR: J'ai cueilli la belle rose
!!!PUB: G. E. Desbarats
!!!YEM:
!!!PDT: 1865
!!!SMA:
!!!OMD:
!!!AGN-Laforte:
!!!AGN-type:
!!!AGN-rime:
**kern
*clefG2
*k[]
*C:
*M2/4
*
*
=1
4cc
4b
=2
(4a
4g)
=3
2cc
=4
4dd
4dd
=5
(4ee
4cc)
=6
4b
8r
!!LO:PB:g=original
=7
4ee
4cc
=8
(4a
4g)
=9
2cc
=10
4dd
4dd
=11
(4ee
4cc)
=12
4dd
8r
=13
4cc
4dd
!!LO:PB:g=original
=14
4dd
4ee
=15
4cc
4ee
=16
4dd
8r
=17
4ee
8cc
8cc
=18
(2a
=19
4g)
8r
!!LO:PB:g=original
=20
4cc
4dd
=21
4dd
4ee
=22
4cc
4ee
=23
4dd
8r
=24
4ee
8cc
8b
=25
4.a
8g
!!LO:PB:g=original
=26
4dd
4ee
=27
8eeq
[2cc
=28
4cc]
8r
==||
*
*
==|
!!!RNB: Eighth rests in mm.6, 16, 19, 23, and 28 flipped backward in original
!!!RWG: Eight rest in m.12 in original should be quarter rest
*-
